images/grafik_pw_reset_link_S.svg

<svg width="136" height="136" viewBox="0 0 136 136" fill="none" xmlns="http://www.w3.org/2000/svg">
<path d="M37.7385 121.31C35.091 120.738 3.28103 115.581 5.62478 77.5502C7.96853 39.5189 10.906 28.0814 23.2735 23.8964C35.641 19.7114 65.6998 -0.0873122 89.2898 18.7389C95.4148 23.6264 101.654 28.3552 107.615 33.4702C115.805 40.5002 124.227 48.6164 128.25 59.2502C130.146 64.2702 130.857 69.6602 130.329 75.0002C129.712 81.2764 128.845 87.3814 127.265 93.5002C126.727 95.5835 126.189 97.6669 125.651 99.7502C125.329 101 125.004 102.258 124.495 103.435C121.224 111.023 117.097 116.001 110.184 120.041C104.184 123.541 96.7485 123.455 90.121 123.069C63.7673 121.533 50.3273 124.033 37.7385 121.31Z" fill="#F9F9F9"/>
<g clip-path="url(#clip0)">
<path d="M90.8235 21.6968H47.666C43.7323 21.6968 40.541 24.773 40.541 28.5718V111.776C40.541 115.569 43.7298 118.644 47.666 118.644H90.8235C94.7585 118.644 97.9485 115.569 97.9485 111.776V28.5668C97.9472 24.773 94.7585 21.6968 90.8235 21.6968Z" fill="white"/>
<path d="M74.1388 28.6703H64.32C63.9835 28.6703 63.6608 28.5366 63.4229 28.2987C63.1849 28.0608 63.0513 27.738 63.0513 27.4016C63.0513 27.0651 63.1849 26.7424 63.4229 26.5044C63.6608 26.2665 63.9835 26.1328 64.32 26.1328H74.1388C74.4753 26.1328 74.798 26.2665 75.036 26.5044C75.2739 26.7424 75.4076 27.0651 75.4076 27.4016C75.4076 27.738 75.2739 28.0608 75.036 28.2987C74.798 28.5366 74.4753 28.6703 74.1388 28.6703ZM64.32 26.6328C64.1161 26.6328 63.9206 26.7138 63.7764 26.858C63.6323 27.0021 63.5513 27.1977 63.5513 27.4016C63.5513 27.6054 63.6323 27.801 63.7764 27.9451C63.9206 28.0893 64.1161 28.1703 64.32 28.1703H74.1388C74.3427 28.1703 74.5382 28.0893 74.6824 27.9451C74.8266 27.801 74.9076 27.6054 74.9076 27.4016C74.9076 27.1977 74.8266 27.0021 74.6824 26.858C74.5382 26.7138 74.3427 26.6328 74.1388 26.6328H64.32Z" fill="#6A79A8"/>
<g clip-path="url(#clip1)">
<path d="M47.1821 118.579L89.7484 119.025C93.9321 119.069 97.2046 110.698 97.0521 100.4L96.1609 40.5676C96.0171 30.8313 92.6321 23.0251 88.6059 23.0676L47.6359 23.4463C43.6846 23.4838 40.4271 31.2613 40.3534 40.8876L39.8984 100.024C39.8196 110.195 43.0784 118.535 47.1821 118.579Z" fill="white"/>
<path d="M96.6081 70.6509L67.1519 118.787L89.7468 119.025C93.9306 119.068 97.2031 110.697 97.0506 100.4L96.6081 70.6509Z" fill="#F0F9FC"/>
<path d="M40.0283 83.0591L75.7484 23.1841L47.6408 23.4466C43.6896 23.4841 40.4321 31.2616 40.3583 40.8878L40.0283 83.0591Z" fill="#F0F9FC"/>
<path d="M95.4761 33.6724L44.7773 117.534C45.5273 118.191 46.3361 118.569 47.1823 118.577L52.7111 118.636L96.2561 46.9324L96.1611 40.5674C96.1331 38.2535 95.9039 35.9465 95.4761 33.6724V33.6724Z" fill="#F0F9FC"/>
</g>
<path d="M94.7674 109.598H43.7236C43.6573 109.598 43.5937 109.571 43.5469 109.525C43.5 109.478 43.4736 109.414 43.4736 109.348V33.3828C43.4736 33.3165 43.5 33.2529 43.5469 33.206C43.5937 33.1592 43.6573 33.1328 43.7236 33.1328H94.7674C94.8337 33.1328 94.8973 33.1592 94.9442 33.206C94.9911 33.2529 95.0174 33.3165 95.0174 33.3828V109.348C95.0174 109.414 94.9911 109.478 94.9442 109.525C94.8973 109.571 94.8337 109.598 94.7674 109.598ZM43.9736 109.098H94.5174V33.6328H43.9736V109.098Z" fill="#6A79A8"/>
<path d="M90.8248 118.894H47.666C43.601 118.894 40.291 115.7 40.291 111.775V28.5664C40.291 24.6402 43.5985 21.4414 47.666 21.4414H90.8248C94.8898 21.4414 98.1998 24.6352 98.1998 28.5664V111.775C98.1973 115.7 94.8898 118.894 90.8248 118.894ZM47.666 21.9464C43.876 21.9464 40.791 24.9164 40.791 28.5714V111.775C40.791 115.425 43.8735 118.394 47.666 118.394H90.8248C94.6135 118.394 97.6998 115.425 97.6998 111.775V28.5664C97.6998 24.9164 94.616 21.9414 90.8248 21.9414L47.666 21.9464Z" fill="#6A79A8"/>
<path d="M72.7371 116.81H65.9721C65.6 116.818 65.23 116.752 64.884 116.615C64.5379 116.478 64.2227 116.273 63.9567 116.013C63.6908 115.752 63.4795 115.441 63.3352 115.098C63.191 114.755 63.1167 114.387 63.1167 114.015C63.1167 113.642 63.191 113.274 63.3352 112.931C63.4795 112.588 63.6908 112.277 63.9567 112.016C64.2227 111.756 64.5379 111.551 64.884 111.414C65.23 111.278 65.6 111.211 65.9721 111.219H72.7371C73.1092 111.211 73.4791 111.278 73.8252 111.414C74.1712 111.551 74.4865 111.756 74.7524 112.016C75.0184 112.277 75.2296 112.588 75.3739 112.931C75.5181 113.274 75.5924 113.642 75.5924 114.015C75.5924 114.387 75.5181 114.755 75.3739 115.098C75.2296 115.441 75.0184 115.752 74.7524 116.013C74.4865 116.273 74.1712 116.478 73.8252 116.615C73.4791 116.752 73.1092 116.818 72.7371 116.81V116.81ZM65.9721 111.719C65.6661 111.712 65.3618 111.766 65.077 111.878C64.7922 111.99 64.5328 112.158 64.3139 112.372C64.0949 112.586 63.921 112.841 63.8022 113.123C63.6834 113.405 63.6222 113.708 63.6222 114.015C63.6222 114.321 63.6834 114.624 63.8022 114.906C63.921 115.188 64.0949 115.443 64.3139 115.657C64.5328 115.871 64.7922 116.039 65.077 116.151C65.3618 116.263 65.6661 116.317 65.9721 116.31H72.7371C73.043 116.317 73.3474 116.263 73.6321 116.151C73.9169 116.039 74.1764 115.871 74.3953 115.657C74.6142 115.443 74.7882 115.188 74.9069 114.906C75.0257 114.624 75.0869 114.321 75.0869 114.015C75.0869 113.708 75.0257 113.405 74.9069 113.123C74.7882 112.841 74.6142 112.586 74.3953 112.372C74.1764 112.158 73.9169 111.99 73.6321 111.878C73.3474 111.766 73.043 111.712 72.7371 111.719H65.9721Z" fill="#6A79A8"/>
</g>
<g clip-path="url(#clip2)">
<path d="M57.7447 62.3149H77.7761C79.0367 62.3149 80.0452 63.3375 80.0452 64.5873V77.704C80.0452 78.9664 79.0241 79.9764 77.7761 79.9764H57.7447C56.4841 79.9764 55.4756 78.9538 55.4756 77.704V64.5999C55.4756 63.3375 56.4841 62.3149 57.7447 62.3149Z" fill="#EF8F7F"/>
<path d="M58.8792 63.6914H76.6414C77.7003 63.6914 78.5576 64.5499 78.5576 65.6103V76.6945C78.5576 77.7549 77.7003 78.6134 76.6414 78.6134H58.8792C57.8203 78.6134 56.963 77.7549 56.963 76.6945V65.6103C56.9504 64.5499 57.8203 63.6914 58.8792 63.6914Z" fill="#F9AB98"/>
<path d="M77.9651 62.189H58.2993C57.0765 62.189 55.8033 62.5803 55.3242 63.8301C55.0091 64.6507 55.173 65.7743 55.173 66.6327V76.5176C55.173 77.6538 55.0595 78.8531 56.0932 79.6358C56.837 80.2039 57.7194 80.1155 58.5893 80.1155H76.7171C77.5995 80.1155 78.4693 80.1534 79.2509 79.6358C80.3729 78.9036 80.3603 77.7548 80.3603 76.5807V66.759C80.3603 65.8879 80.499 64.8779 80.3099 64.0195C80.0577 62.9086 79.0618 62.2268 77.9651 62.189C77.8264 62.189 77.2718 62.4415 77.5743 62.4541C78.8097 62.5046 79.7048 63.464 79.7426 64.6886C79.7552 64.9411 79.7426 65.1936 79.7426 65.4587V69.6247C79.7426 72.3137 79.7678 75.0153 79.7426 77.7043C79.73 78.689 79.1501 79.7494 78.0659 79.863C77.8895 79.8756 77.7004 79.8756 77.5239 79.863H64.6655C62.4594 79.863 60.2407 79.8883 58.0346 79.863C56.5975 79.8504 55.7781 78.7521 55.7655 77.4013C55.7655 76.2777 55.7655 75.1415 55.7655 74.018V65.0294C55.7655 63.8175 56.1815 62.5172 57.6438 62.4541C58.4128 62.4288 59.1944 62.4541 59.976 62.4541H77.5743C77.713 62.4541 78.2676 62.189 77.9651 62.189Z" fill="#6A79A8"/>
<path d="M63.3798 72.011C63.3798 72.2256 63.3293 72.4402 63.2411 72.6422C63.1276 72.882 62.9764 73.1093 62.7999 73.2986C62.573 73.5259 62.3082 73.7026 62.0183 73.8289C61.6653 73.9677 61.2871 74.0435 60.9089 74.0309C60.619 74.0309 60.329 74.0056 60.0391 73.9425C59.787 73.892 59.5474 73.791 59.3205 73.6647C59.0936 73.5259 58.9045 73.3618 58.728 73.1598C58.5642 72.9704 58.4255 72.7558 58.3246 72.5286C58.2112 72.2887 58.1229 72.0362 58.0725 71.7711C58.0095 71.4934 57.9843 71.203 57.9843 70.9253C57.9717 70.4834 58.0473 70.0416 58.1986 69.6123C58.3246 69.2462 58.5389 68.9054 58.8037 68.6276C59.0684 68.3499 59.3836 68.1353 59.7365 67.9964C60.1021 67.8576 60.4803 67.7818 60.8711 67.7818C61.3249 67.7692 61.7661 67.8702 62.1822 68.0722C62.5351 68.2363 62.8377 68.4888 63.0646 68.7918C63.2537 69.019 63.3545 69.3094 63.3671 69.6123C63.3671 69.7512 63.3167 69.8901 63.2159 69.9911C63.1276 70.0921 62.989 70.1552 62.8629 70.1552C62.7368 70.1678 62.6108 70.1299 62.5099 70.0416C62.4091 69.928 62.3208 69.8017 62.2452 69.6628C62.1191 69.3977 61.9174 69.1705 61.6779 68.9938C61.4384 68.8423 61.161 68.7665 60.8837 68.7665C60.4173 68.7539 59.9635 68.9685 59.6861 69.3346C59.3836 69.7133 59.2449 70.2562 59.2449 70.9631C59.2323 71.3671 59.2953 71.7585 59.4466 72.1372C59.5601 72.4276 59.7491 72.6674 60.0139 72.8315C60.266 72.983 60.5686 73.0714 60.8585 73.0588C61.1737 73.0714 61.4888 72.983 61.7535 72.7937C62.0057 72.6043 62.2074 72.3266 62.3082 72.0236C62.346 71.8847 62.4217 71.7459 62.4973 71.6322C62.5856 71.5186 62.7242 71.4681 62.8755 71.4807C63.0142 71.4807 63.1528 71.5312 63.2537 71.6322C63.3419 71.7332 63.3924 71.8721 63.3798 72.011Z" fill="white"/>
<path d="M64.4008 73.3363V68.4507C64.3882 68.2613 64.4386 68.0846 64.5521 67.9331C64.6529 67.8195 64.8042 67.7563 64.9555 67.7563C65.1068 67.7563 65.258 67.8068 65.3715 67.9205C65.485 68.072 65.548 68.2487 65.5228 68.4381V73.3237C65.5354 73.513 65.485 73.6898 65.3589 73.8413C65.258 73.9549 65.1068 74.018 64.9429 74.018C64.7916 74.018 64.6403 73.9549 64.5395 73.8413C64.4512 73.7024 64.3882 73.513 64.4008 73.3363Z" fill="white"/>
<path d="M67.2626 68.9177C67.1113 68.9177 66.9726 68.8672 66.8592 68.7789C66.6322 68.5642 66.6322 68.1981 66.8592 67.9835C66.9726 67.8825 67.1113 67.832 67.2626 67.832C67.4012 67.832 67.5399 67.8825 67.6533 67.9709C67.7668 68.0719 67.8298 68.2234 67.8172 68.3749C67.8298 68.5264 67.7668 68.6779 67.6533 68.7789C67.5399 68.8672 67.4012 68.9177 67.2626 68.9177ZM67.8172 70.0792V73.3362C67.8298 73.5256 67.7668 73.7023 67.6533 73.8538C67.5525 73.9675 67.4012 74.0306 67.2499 74.0306C67.0987 74.0306 66.9474 73.9675 66.8465 73.8538C66.7331 73.715 66.6827 73.5256 66.6953 73.3489V70.1297C66.6827 69.9529 66.7331 69.7636 66.8465 69.6247C66.9474 69.5111 67.0987 69.4479 67.2499 69.4606C67.4012 69.4606 67.5525 69.5111 67.6533 69.6247C67.7668 69.7383 67.8298 69.9024 67.8172 70.0792Z" fill="white"/>
<path d="M73.0233 72.6292C73.0233 72.7933 72.9729 72.9448 72.8972 73.0837C72.7964 73.2604 72.6703 73.4119 72.5191 73.5382C72.33 73.6896 72.103 73.8159 71.8635 73.8916C71.5736 73.98 71.2836 74.0179 70.9811 74.0179C70.2877 74.0179 69.7457 73.8159 69.3549 73.4119C68.9641 73.0079 68.775 72.4651 68.775 71.7834C68.7624 71.3541 68.8632 70.9375 69.0397 70.5588C69.2036 70.218 69.4809 69.9276 69.8213 69.7382C70.439 69.4226 71.1702 69.3595 71.8383 69.5741C72.0652 69.6499 72.2669 69.7635 72.456 69.9023C72.6073 70.016 72.746 70.1675 72.8468 70.3316C72.9225 70.4578 72.9729 70.6093 72.9855 70.7608C72.9855 70.887 72.9351 71.0133 72.8342 71.1017C72.7334 71.19 72.6073 71.2405 72.4686 71.2405C72.3804 71.2405 72.3047 71.2153 72.2417 71.1648C72.1661 71.1017 72.0904 71.0133 72.0274 70.9375C71.914 70.7608 71.7627 70.5967 71.5988 70.4704C71.145 70.1927 70.5525 70.2937 70.2247 70.6977C70.023 70.9628 69.9222 71.3163 69.9222 71.7707C69.9222 71.9727 69.9474 72.1621 69.9978 72.3515C70.0482 72.5156 70.1239 72.6671 70.2247 72.8059C70.3256 72.9322 70.439 73.0206 70.5777 73.0963C70.729 73.1594 70.8802 73.1973 71.0441 73.1973C71.2458 73.1973 71.4475 73.1468 71.624 73.0458C71.8005 72.9196 71.9518 72.7554 72.0526 72.5661C72.103 72.4525 72.1787 72.3515 72.2795 72.2631C72.3552 72.1874 72.4686 72.1495 72.5695 72.1621C72.6955 72.1621 72.8216 72.2126 72.9099 72.3136C72.9729 72.3767 73.0233 72.503 73.0233 72.6292Z" fill="white"/>
<path d="M76.4901 73.5004L75.4942 71.8592L74.8891 72.4399V73.3363C74.9017 73.5256 74.8387 73.7024 74.7252 73.8412C74.6244 73.9549 74.4857 74.018 74.3344 74.018C74.1831 74.0306 74.0319 73.9675 73.931 73.8412C73.8176 73.6898 73.7671 73.513 73.7797 73.3237V68.5264C73.7671 68.3244 73.8176 68.1224 73.9184 67.9583C74.0193 67.8321 74.1705 67.7563 74.3344 67.7689C74.4857 67.7563 74.6496 67.8321 74.7504 67.9457C74.8639 68.0972 74.9143 68.2865 74.9017 68.4759V71.2154L76.1623 69.8898C76.2758 69.7636 76.3892 69.65 76.5153 69.549C76.6036 69.4859 76.7044 69.4606 76.8179 69.4606C76.9439 69.4606 77.07 69.4985 77.1708 69.5995C77.2591 69.6878 77.3095 69.8141 77.3095 69.9403C77.3095 70.1044 77.1582 70.3191 76.8557 70.5968L76.2632 71.1396L77.423 72.9575C77.5112 73.0964 77.5742 73.1974 77.6121 73.2605C77.6499 73.3237 77.6625 73.3868 77.6625 73.4625C77.6751 73.614 77.6247 73.7655 77.5112 73.8791C77.4104 73.9801 77.2717 74.0432 77.1204 74.0306C77.007 74.0432 76.8935 73.9927 76.8053 73.917C76.6666 73.7908 76.5657 73.6519 76.4901 73.5004Z" fill="white"/>
<path d="M86.3107 89.508L80.7639 83.9533L77.4484 87.2861C77.2215 87.5134 76.8433 87.5134 76.6164 87.2861C76.503 87.1725 76.4399 87.021 76.4399 86.8695V76.2525C76.4399 75.9242 76.7047 75.6465 77.045 75.6465H87.6469C87.9747 75.6465 88.2394 75.9116 88.2394 76.2398C88.2394 76.4039 88.1764 76.5554 88.0629 76.6564L84.8483 79.8756L90.3951 85.4303C90.7481 85.7838 90.7481 86.3519 90.3951 86.7054L87.5839 89.508C87.2309 89.8615 86.6636 89.8615 86.3107 89.508Z" fill="#79D379"/>
<path d="M85.9576 87.488L81.5581 83.1073C81.4698 83.019 81.3311 83.019 81.2555 83.1073L78.4947 85.8847C78.167 86.2129 77.4736 85.8468 77.461 85.3797L77.0576 76.3281C77.0576 76.0377 77.2845 75.7979 77.5745 75.7979H77.5871L87.0292 75.8988C87.9999 75.8988 88.1259 76.3533 87.546 76.934L84.7222 79.7745L90.1807 85.2156L87.7729 87.5006C87.2687 87.993 86.4619 87.993 85.9576 87.488Z" fill="#96E296"/>
<path d="M86.7014 89.4952L81.0538 83.8395C80.9277 83.7132 80.6378 83.8016 80.5243 83.9152L78.1291 86.3138L77.5366 86.9072C77.461 86.9829 77.3097 87.1975 77.2089 87.2354C76.7172 87.3869 76.7424 86.7557 76.7424 86.4527V78.7771C76.7424 77.9565 76.6164 77.0349 76.7424 76.2144C76.8055 75.8104 76.9189 75.8104 77.2341 75.8104H86.5627C86.8527 75.8104 87.2182 75.7599 87.4956 75.8104C88.4411 75.9998 87.5838 76.8203 87.2813 77.1233L84.5835 79.8249C84.5457 79.8628 84.4827 79.9385 84.5457 79.989L88.3276 83.7763C88.9075 84.3571 89.5252 84.9251 90.0925 85.5437C90.7858 86.3138 89.8782 86.9198 89.3361 87.45L87.9242 88.8513C87.6595 89.1417 87.193 89.8865 86.7014 89.4952C86.5375 89.3689 85.9702 89.5961 86.1341 89.735C87.1426 90.5303 88.0124 89.3689 88.668 88.7251C89.3739 88.0181 90.2438 87.349 90.8362 86.5411C91.4287 85.7331 90.4076 85.0514 89.9034 84.5464C88.9705 83.6122 88.0251 82.6654 87.0922 81.7312L85.1382 79.7744C85.1256 79.8249 85.113 79.888 85.1004 79.9385L87.7981 77.2369C88.0755 76.9592 88.5419 76.631 88.5545 76.2017C88.5671 75.6589 88.0755 75.4948 87.6216 75.4822C84.8735 75.419 82.1001 75.4822 79.3519 75.4822H77.7005C77.4106 75.4822 77.0954 75.4569 76.8181 75.5453C75.8852 75.8356 76.1499 77.0854 76.1499 77.8429V86.4906C76.1499 86.8945 76.0995 87.2985 76.5155 87.5258C77.0828 87.8414 77.5997 87.4374 77.9778 87.046L81.0286 83.9909L80.4991 84.0667L86.1467 89.7224C86.2854 89.8865 86.8527 89.6593 86.7014 89.4952Z" fill="#6A79A8"/>
<path d="M50.2694 59.3233C50.9502 60.2954 51.757 61.1665 52.6646 61.9113C52.8285 62.0375 53.3832 61.8103 53.2319 61.6841C52.3243 60.9392 51.5175 60.0681 50.8367 59.0961C50.7233 58.932 50.1308 59.1339 50.2694 59.3233Z" fill="#6A79A8"/>
<path d="M48.0379 63.7419C49.1095 64.2469 50.2314 64.6004 51.3912 64.815C51.5425 64.8402 52.072 64.6004 51.8829 64.5625C50.7231 64.3605 49.5885 63.9944 48.5296 63.4894C48.4035 63.4263 47.8489 63.6536 48.0379 63.7419Z" fill="#6A79A8"/>
<path d="M55.7653 60.6109C55.4754 59.4747 55.3367 58.3132 55.3619 57.1518C55.3619 56.8867 54.7568 57.0003 54.7568 57.2149C54.7316 58.4142 54.8703 59.6009 55.1728 60.7624C55.2106 61.0022 55.8283 60.8381 55.7653 60.6109Z" fill="#6A79A8"/>
</g>
<defs>
<clipPath id="clip0">
<rect width="58.0514" height="97.4525" fill="white" transform="translate(40.1484 21.4414)"/>
</clipPath>
<clipPath id="clip1">
<rect width="51" height="76" fill="white" transform="translate(43.7485 33.2412)"/>
</clipPath>
<clipPath id="clip2">
<rect width="43" height="33" fill="white" transform="translate(48 57)"/>
</clipPath>
</defs>
</svg>

<svg xmlns="http://www.w3.org/2000/svg" width="136" height="136" fill="none"><path fill="#F9F9F9" d="M37.739 121.31c-2.648-.572-34.458-5.729-32.114-43.76 2.344-38.031 5.281-49.469 17.649-53.654C35.64 19.711 65.7-.087 89.29 18.74c6.125 4.887 12.364 9.616 18.325 14.731 8.19 7.03 16.612 15.146 20.635 25.78A34.866 34.866 0 0 1 130.329 75c-.617 6.276-1.484 12.381-3.064 18.5l-1.614 6.25c-.322 1.25-.647 2.508-1.156 3.685-3.271 7.588-7.398 12.566-14.311 16.606-6 3.5-13.435 3.414-20.063 3.028-26.354-1.536-39.794.964-52.382-1.759"/><g clip-path="url(#a)"><path fill="#fff" d="M90.824 21.697H47.665c-3.934 0-7.125 3.076-7.125 6.875v83.204c0 3.793 3.189 6.868 7.125 6.868h43.158c3.935 0 7.124-3.075 7.124-6.868v-83.21c0-3.793-3.19-6.87-7.124-6.87"/><path fill="#6A79A8" d="M74.139 28.67H64.32a1.269 1.269 0 0 1 0-2.537h9.819a1.27 1.27 0 0 1 0 2.537m-9.819-2.037a.769.769 0 0 0 0 1.537h9.819a.769.769 0 0 0 0-1.537z"/><g clip-path="url(#b)"><path fill="#fff" d="m47.182 118.579 42.566.446c4.184.044 7.457-8.327 7.304-18.625l-.891-59.832c-.144-9.737-3.529-17.543-7.555-17.5l-40.97.378c-3.951.038-7.209 7.815-7.283 17.442l-.455 59.136c-.078 10.171 3.18 18.511 7.284 18.555"/><path fill="#F0F9FC" d="m96.608 70.65-29.456 48.137 22.595.238c4.184.043 7.456-8.328 7.304-18.625zm-56.58 12.41 35.72-59.876-28.107.263c-3.951.037-7.209 7.815-7.283 17.44zm55.448-49.388-50.699 83.862c.75.657 1.56 1.035 2.405 1.043l5.53.059 43.544-71.704-.095-6.365a39.907 39.907 0 0 0-.685-6.895"/></g><path fill="#6A79A8" d="M94.767 109.598H43.724a.251.251 0 0 1-.25-.25V33.383a.25.25 0 0 1 .25-.25h51.043a.25.25 0 0 1 .25.25v75.965a.251.251 0 0 1-.25.25m-50.793-.5h50.543V33.633H43.974z"/><path fill="#6A79A8" d="M90.825 118.894H47.666c-4.065 0-7.375-3.194-7.375-7.119V28.566c0-3.926 3.308-7.125 7.375-7.125h43.159c4.065 0 7.375 3.194 7.375 7.125v83.209c-.003 3.925-3.31 7.119-7.375 7.119M47.666 21.946c-3.79 0-6.875 2.97-6.875 6.625v83.204c0 3.65 3.083 6.619 6.875 6.619h43.159c3.788 0 6.875-2.969 6.875-6.619V28.566c0-3.65-3.084-6.625-6.875-6.625z"/><path fill="#6A79A8" d="M72.737 116.81h-6.765a2.792 2.792 0 0 1-2.855-2.795 2.795 2.795 0 0 1 2.855-2.796h6.765a2.803 2.803 0 0 1 2.637 1.712 2.795 2.795 0 0 1-2.637 3.879m-6.765-5.091a2.302 2.302 0 0 0-1.658.653 2.296 2.296 0 0 0 1.658 3.938h6.765a2.301 2.301 0 0 0 2.17-1.404 2.295 2.295 0 0 0-2.17-3.187z"/></g><g clip-path="url(#c)"><path fill="#EF8F7F" d="M57.745 62.315h20.031a2.27 2.27 0 0 1 2.27 2.272v13.117a2.27 2.27 0 0 1-2.27 2.272H57.745a2.27 2.27 0 0 1-2.27-2.272V64.6a2.272 2.272 0 0 1 2.27-2.285"/><path fill="#F9AB98" d="M58.88 63.691h17.76c1.06 0 1.917.859 1.917 1.92v11.084c0 1.06-.858 1.918-1.917 1.918H58.88a1.917 1.917 0 0 1-1.916-1.918V65.61c-.013-1.06.857-1.919 1.916-1.919"/><path fill="#6A79A8" d="M77.965 62.189H58.3c-1.222 0-2.496.391-2.975 1.641-.315.82-.151 1.944-.151 2.803v9.885c0 1.136-.114 2.335.92 3.118.744.568 1.626.48 2.496.48h18.128c.883 0 1.752.037 2.534-.48 1.122-.732 1.11-1.881 1.11-3.055v-9.822c0-.871.138-1.881-.051-2.74-.252-1.11-1.248-1.792-2.345-1.83-.139 0-.693.252-.39.265 1.235.05 2.13 1.01 2.168 2.235.012.252 0 .505 0 .77v4.166c0 2.689.025 5.39 0 8.08-.013.984-.593 2.044-1.677 2.158a3.89 3.89 0 0 1-.542 0h-12.86c-2.206 0-4.424.025-6.63 0-1.437-.013-2.257-1.11-2.27-2.462V65.03c0-1.211.416-2.512 1.879-2.575.769-.025 1.55 0 2.332 0h17.598c.139 0 .694-.265.391-.265"/><path fill="#fff" d="M63.38 72.011c0 .215-.05.43-.139.631-.113.24-.265.467-.441.657a2.522 2.522 0 0 1-.782.53 2.79 2.79 0 0 1-1.11.202c-.289 0-.579-.025-.869-.089a2.495 2.495 0 0 1-.718-.277 2.564 2.564 0 0 1-.996-1.136 3.15 3.15 0 0 1-.253-.758 3.859 3.859 0 0 1-.088-.846 3.632 3.632 0 0 1 .215-1.313 2.726 2.726 0 0 1 1.537-1.616 3.177 3.177 0 0 1 1.135-.214c.454-.013.895.088 1.311.29.353.164.656.417.883.72.189.227.29.517.302.82 0 .14-.05.278-.151.38a.49.49 0 0 1-.353.163.461.461 0 0 1-.353-.113c-.1-.114-.19-.24-.265-.38a1.812 1.812 0 0 0-.567-.668 1.487 1.487 0 0 0-.794-.228 1.463 1.463 0 0 0-1.198.569c-.302.378-.441.921-.441 1.628-.013.404.05.796.202 1.174.113.29.302.53.567.695.252.151.555.24.844.227.316.012.63-.076.896-.265.252-.19.453-.467.554-.77.038-.14.114-.278.19-.392a.42.42 0 0 1 .378-.151c.138 0 .277.05.378.151.088.101.138.24.126.379m1.02 1.325v-4.885a.76.76 0 0 1 .152-.518.58.58 0 0 1 .82-.013.701.701 0 0 1 .15.518v4.886a.71.71 0 0 1-.163.517.551.551 0 0 1-.416.177.543.543 0 0 1-.403-.177.872.872 0 0 1-.14-.505m2.863-4.418a.651.651 0 0 1-.404-.14.55.55 0 0 1 0-.794.594.594 0 0 1 .404-.152c.138 0 .277.05.39.139a.492.492 0 0 1 .164.404.492.492 0 0 1-.164.404.642.642 0 0 1-.39.139m.554 1.161v3.257a.771.771 0 0 1-.164.518.543.543 0 0 1-.403.177.543.543 0 0 1-.403-.177.728.728 0 0 1-.152-.505v-3.22a.729.729 0 0 1 .152-.504.49.49 0 0 1 .403-.164.53.53 0 0 1 .403.164.581.581 0 0 1 .164.454m5.206 2.551c0 .163-.05.315-.126.454-.1.176-.227.328-.378.454a2.05 2.05 0 0 1-.656.354c-.29.088-.58.126-.882.126-.693 0-1.235-.202-1.626-.606-.39-.404-.58-.947-.58-1.629a2.697 2.697 0 0 1 .265-1.224c.164-.341.44-.631.781-.82a2.663 2.663 0 0 1 2.017-.165c.227.076.429.19.618.328.151.114.29.266.39.43.076.126.127.277.14.429 0 .126-.05.252-.152.34a.549.549 0 0 1-.365.14.352.352 0 0 1-.227-.076 1.823 1.823 0 0 1-.215-.228 1.893 1.893 0 0 0-.428-.467 1.063 1.063 0 0 0-1.374.228c-.202.265-.303.618-.303 1.073 0 .202.025.391.076.58.05.165.126.316.227.455.1.126.214.215.353.29a1.168 1.168 0 0 0 1.046-.05 1.41 1.41 0 0 0 .429-.48.871.871 0 0 1 .227-.303.36.36 0 0 1 .29-.1.45.45 0 0 1 .453.466m3.467.871-.996-1.64-.605.58v.896a.718.718 0 0 1-.164.505.516.516 0 0 1-.39.177.466.466 0 0 1-.404-.177.761.761 0 0 1-.151-.517v-4.798a.979.979 0 0 1 .138-.568.485.485 0 0 1 .416-.19.527.527 0 0 1 .416.178c.114.151.164.34.152.53v2.74l1.26-1.326a2.99 2.99 0 0 1 .353-.341.502.502 0 0 1 .303-.088c.126 0 .252.038.353.139a.488.488 0 0 1 .138.34c0 .164-.15.38-.453.657l-.593.543 1.16 1.817.19.303c.037.064.05.127.05.203a.523.523 0 0 1-.543.568.425.425 0 0 1-.315-.114 1.398 1.398 0 0 1-.315-.417"/><path fill="#79D379" d="m86.31 89.508-5.546-5.555-3.316 3.333a.593.593 0 0 1-1.008-.416V76.252c0-.328.265-.605.605-.605h10.602c.328 0 .592.265.592.593a.552.552 0 0 1-.176.416l-3.215 3.22 5.547 5.554a.9.9 0 0 1 0 1.275l-2.811 2.803a.897.897 0 0 1-1.273 0"/><path fill="#96E296" d="m85.958 87.488-4.4-4.38c-.088-.089-.227-.089-.303 0l-2.76 2.777c-.328.328-1.021-.038-1.034-.505l-.403-9.052c0-.29.226-.53.516-.53h.013l9.442.1c.97 0 1.097.455.517 1.036l-2.824 2.84 5.459 5.442-2.408 2.285a1.288 1.288 0 0 1-1.815-.013"/><path fill="#6A79A8" d="m86.701 89.495-5.647-5.656c-.126-.126-.416-.037-.53.076l-2.395 2.399-.592.593c-.076.076-.227.29-.328.328-.492.152-.467-.48-.467-.782v-7.676c0-.82-.126-1.742 0-2.563.063-.404.177-.404.492-.404h9.329c.29 0 .655-.05.933 0 .945.19.088 1.01-.215 1.313l-2.698 2.702c-.037.038-.1.114-.037.164l3.782 3.787c.58.581 1.197 1.15 1.764 1.768.694.77-.214 1.376-.756 1.906l-1.412 1.401c-.265.29-.731 1.035-1.223.644-.163-.126-.73.101-.567.24 1.009.795 1.878-.366 2.534-1.01.706-.707 1.576-1.376 2.168-2.184.593-.808-.428-1.49-.933-1.995l-2.81-2.815-1.955-1.957c-.012.05-.025.114-.038.165l2.698-2.702c.278-.278.744-.606.757-1.035.012-.543-.48-.707-.933-.72-2.748-.063-5.522 0-8.27 0H77.7c-.29 0-.606-.025-.883.063-.933.29-.668 1.54-.668 2.298v8.648c0 .403-.05.808.365 1.035.568.315 1.085-.089 1.463-.48l3.05-3.055-.529.076 5.648 5.655c.138.165.706-.063.554-.227M50.27 59.323a12.95 12.95 0 0 0 2.395 2.588c.163.127.718-.1.567-.227a12.984 12.984 0 0 1-2.395-2.588c-.114-.164-.706.038-.568.227m-2.231 4.419a13.69 13.69 0 0 0 3.353 1.073c.151.025.681-.215.492-.252a13 13 0 0 1-3.353-1.074c-.127-.063-.681.165-.492.253m7.727-3.132a12.857 12.857 0 0 1-.403-3.458c0-.265-.605-.152-.605.063-.025 1.2.113 2.386.416 3.547.038.24.655.076.592-.151"/></g><defs><clipPath id="a"><path fill="#fff" d="M40.148 21.441H98.2v97.453H40.15z"/></clipPath><clipPath id="b"><path fill="#fff" d="M43.749 33.241h51v76h-51z"/></clipPath><clipPath id="c"><path fill="#fff" d="M48 57h43v33H48z"/></clipPath></defs></svg>
